assets/fc/fc-genealogy.svg

<svg xmlns="http://www.w3.org/2000/svg" width="100%" height="100%" viewBox="0 0 48 48"><path fill="#CFD8DC" d="M40 9V7h-9v5H15v11H8v2h7v11h16v5h9v-2h-7v-8h7v-2h-9v5H17V14h14v5h9v-2h-7V9z"/><path fill="#00BCD4" d="M4 20h8v8H4z"/><g fill="#3F51B5"><path d="M36 14h8v8h-8zM36 4h8v8h-8zM20 9h8v8h-8zM20 31h8v8h-8zM36 36h8v8h-8zM36 26h8v8h-8z"/></g></svg>

<svg xmlns="http://www.w3.org/2000/svg" width="100%" height="100%" viewBox="0 0 48 48"><path fill="#CFD8DC" d="M40 9L40 7 31 7 31 12 24 12 15 12 15 23 8 23 8 25 15 25 15 36 24 36 31 36 31 41 40 41 40 39 33 39 33 31 40 31 40 29 31 29 31 34 24 34 17 34 17 14 24 14 31 14 31 19 40 19 40 17 33 17 33 9z"/><path fill="#00BCD4" d="M4 20H12V28H4z"/><g fill="#3F51B5"><path d="M36 14H44V22H36zM36 4H44V12H36zM20 9H28V17H20zM20 31H28V39H20zM36 36H44V44H36zM36 26H44V34H36z"/></g></svg>
